icon-themes/breeze_svg/cmd/32/paragraphdialog.svg

<svg viewBox="0 0 32 32" xmlns="http://www.w3.org/2000/svg"><path d="m17 4a8 7.5 0 0 0 -8 7.5 8 7.5 0 0 0 8 7.5v9h1v-23h2v23h1v-24h-1-2z" fill="#4d4d4d"/><path d="m27 18c-.55229 0-1 .44771-1 1 0 .55228.44771 1 1 1 .55228 0 1-.44772 1-1 0-.55229-.44772-1-1-1zm0 4c-.55229 0-1 .44771-1 1 0 .55228.44771 1 1 1 .55228 0 1-.44772 1-1 0-.55229-.44772-1-1-1zm0 4c-.55229 0-1 .44771-1 1 0 .55228.44771 1 1 1 .55228 0 1-.44772 1-1 0-.55229-.44772-1-1-1z" fill="#f47750"/></svg>

<svg xmlns="http://www.w3.org/2000/svg" viewBox="0 0 32 32">
 <path 
     style="fill:#4d4d4d" 
     d="M 17 4 A 8 7.5 0 0 0 9 11.5 A 8 7.5 0 0 0 17 19 L 17 28 L 18 28 L 18 5 L 20 5 L 20 28 L 21 28 L 21 4 L 20 4 L 18 4 L 17 4 z "
     />
 <path 
     style="fill:#f47750" 
     d="M 27 18 C 26.44771 18 26 18.44771 26 19 C 26 19.55228 26.44771 20 27 20 C 27.55228 20 28 19.55228 28 19 C 28 18.44771 27.55228 18 27 18 z M 27 22 C 26.44771 22 26 22.44771 26 23 C 26 23.55228 26.44771 24 27 24 C 27.55228 24 28 23.55228 28 23 C 28 22.44771 27.55228 22 27 22 z M 27 26 C 26.44771 26 26 26.44771 26 27 C 26 27.55228 26.44771 28 27 28 C 27.55228 28 28 27.55228 28 27 C 28 26.44771 27.55228 26 27 26 z "
     />
</svg>
